images/icon/news.svg

<svg width="40" height="40" viewBox="0 0 40 40" fill="none" xmlns="http://www.w3.org/2000/svg">
<path d="M4.7688 12.0391H2.11511V30.6149C2.11511 32.0744 3.30927 33.2685 4.7688 33.2685C6.22832 33.2685 7.42248 32.0744 7.42248 30.6149V6.73169H37.9399V30.6149C37.9399 32.0744 36.7457 33.2685 35.2862 33.2685H4.7688" stroke="#544545" stroke-width="2" stroke-miterlimit="10" stroke-linecap="round" stroke-linejoin="round"/>
<path d="M10.7399 10.7121H34.623" stroke="#544545" stroke-width="2" stroke-miterlimit="10" stroke-linecap="round" stroke-linejoin="round"/>
<path d="M16.0472 14.0292H10.7399V19.3365H16.0472V14.0292Z" stroke="#E60000" stroke-width="2" stroke-miterlimit="10" stroke-linecap="round" stroke-linejoin="round"/>
<path d="M34.6231 14.0292H19.3644V19.3365H34.6231V14.0292Z" stroke="#E60000" stroke-width="2" stroke-miterlimit="10" stroke-linecap="round" stroke-linejoin="round"/>
<path d="M16.0472 22.6536H10.7399" stroke="#544545" stroke-width="2" stroke-miterlimit="10" stroke-linecap="round" stroke-linejoin="round"/>
<path d="M34.6231 22.6536H19.3644" stroke="#544545" stroke-width="2" stroke-miterlimit="10" stroke-linecap="round" stroke-linejoin="round"/>
<path d="M16.0472 25.9709H10.7399" stroke="#544545" stroke-width="2" stroke-miterlimit="10" stroke-linecap="round" stroke-linejoin="round"/>
<path d="M34.6231 25.9709H19.3644" stroke="#544545" stroke-width="2" stroke-miterlimit="10" stroke-linecap="round" stroke-linejoin="round"/>
<path d="M16.0472 29.288H10.7399" stroke="#544545" stroke-width="2" stroke-miterlimit="10" stroke-linecap="round" stroke-linejoin="round"/>
<path d="M34.6231 29.288H19.3644" stroke="#544545" stroke-width="2" stroke-miterlimit="10" stroke-linecap="round" stroke-linejoin="round"/>
</svg>

<svg width="40" height="40" fill="none" xmlns="http://www.w3.org/2000/svg"><path d="M4.769 12.04H2.115v18.575a2.661 2.661 0 002.654 2.654 2.661 2.661 0 002.653-2.654V6.732H37.94v23.883a2.661 2.661 0 01-2.654 2.654H4.77m5.97-22.557h23.883" stroke="#544545" stroke-width="2" stroke-miterlimit="10" stroke-linecap="round" stroke-linejoin="round"/><path d="M16.047 14.03H10.74v5.307h5.307v-5.308zm18.576 0H19.364v5.307h15.26v-5.308z" stroke="#E60000" stroke-width="2" stroke-miterlimit="10" stroke-linecap="round" stroke-linejoin="round"/><path d="M16.047 22.654H10.74m23.883 0H19.364m-3.317 3.316H10.74m23.883 0H19.364m-3.317 3.318H10.74m23.883 0H19.364" stroke="#544545" stroke-width="2" stroke-miterlimit="10" stroke-linecap="round" stroke-linejoin="round"/></svg>
